icons/arrow-downright.svg

<svg width="24" height="24" viewBox="0 0 24 24" fill="none" xmlns="http://www.w3.org/2000/svg">
<path fill-rule="evenodd" clip-rule="evenodd" d="M15.9863 16.1276C15.6934 16.4205 15.2186 16.4205 14.9257 16.1276L7.8546 9.05655C7.56171 8.76366 7.56171 8.28879 7.8546 7.99589C8.1475 7.703 8.62237 7.703 8.91526 7.99589L15.9863 15.067C16.2792 15.3599 16.2792 15.8347 15.9863 16.1276Z" fill="black"/>
<path fill-rule="evenodd" clip-rule="evenodd" d="M15.0593 14.9628L14.9184 9.74862C14.9072 9.33456 15.2338 8.98982 15.6479 8.97863C16.0619 8.96744 16.4067 9.29403 16.4179 9.7081L16.5595 14.9508L16.5595 14.9609C16.5595 15.7994 15.8702 16.4888 15.0317 16.4888L15.0217 16.4888L9.71843 16.418C9.30425 16.4125 8.97297 16.0722 8.97849 15.6581C8.98402 15.2439 9.32425 14.9126 9.73843 14.9181L15.0325 14.9887C15.0347 14.9885 15.0411 14.987 15.0494 14.9786C15.0567 14.9713 15.0587 14.9656 15.0593 14.9628Z" fill="black"/>
</svg>

<svg xmlns="http://www.w3.org/2000/svg" fill="none" viewBox="0 0 24 24">
  <path fill="#000" fill-rule="evenodd" d="M15.986 16.128a.75.75 0 0 1-1.06 0L7.855 9.057a.75.75 0 0 1 1.06-1.061l7.071 7.071a.75.75 0 0 1 0 1.06Z" clip-rule="evenodd"/>
  <path fill="#000" fill-rule="evenodd" d="m15.06 14.963-.142-5.214a.75.75 0 1 1 1.5-.04l.142 5.242v.01c0 .838-.69 1.528-1.528 1.528h-.01l-5.304-.071a.75.75 0 0 1 .02-1.5l5.295.07c.002 0 .008-.001.016-.01a.033.033 0 0 0 .01-.015Z" clip-rule="evenodd"/>
</svg>
